img/svg/insta.svg

<svg viewBox="0 0 149.98 149.98" xmlns="http://www.w3.org/2000/svg"><rect fill="#326699" height="149.98" opacity=".8" rx="22.79" width="149.98"/><path d="m43.6 33.25h64.84a11.22 11.22 0 0 1 11.2 11.19v64.84a11.22 11.22 0 0 1 -11.2 11.19h-64.84a11.22 11.22 0 0 1 -11.2-11.19v-64.84a11.22 11.22 0 0 1 11.2-11.19zm52.4 9.68a4 4 0 0 0 -4 3.94v9.39a3.94 3.94 0 0 0 4 3.93h9.86a3.94 3.94 0 0 0 3.93-3.93v-9.39a4 4 0 0 0 -3.93-3.94zm13.83 27.2h-7.73a25.48 25.48 0 0 1 1.12 7.49c0 14.51-12.14 26.27-27.12 26.27s-27.1-11.76-27.1-26.27a25.48 25.48 0 0 1 1.12-7.49h-8v36.87a3.47 3.47 0 0 0 3.47 3.46h60.74a3.47 3.47 0 0 0 3.47-3.46zm-33.73-10.43a17 17 0 1 0 17.52 17c0-9.41-7.84-17-17.52-17z" fill="#ffeed7"/></svg>

<svg xmlns="http://www.w3.org/2000/svg" viewBox="0 0 149.98 149.98"><defs><style>.cls-1{fill:#326699;opacity:0.8;}.cls-2{fill:#ffeed7;}</style></defs><title>Asset 12</title><g id="Layer_2" data-name="Layer 2"><g id="Ebene_1" data-name="Ebene 1"><rect class="cls-1" width="149.98" height="149.98" rx="22.79" ry="22.79"/><path class="cls-2" d="M43.6,33.25h64.84a11.22,11.22,0,0,1,11.2,11.19v64.84a11.22,11.22,0,0,1-11.2,11.19H43.6a11.22,11.22,0,0,1-11.2-11.19V44.44A11.22,11.22,0,0,1,43.6,33.25ZM96,42.93A4,4,0,0,0,92,46.87v9.39A3.94,3.94,0,0,0,96,60.19h9.86a3.94,3.94,0,0,0,3.93-3.93V46.87a4,4,0,0,0-3.93-3.94Zm13.83,27.2H102.1a25.48,25.48,0,0,1,1.12,7.49c0,14.51-12.14,26.27-27.12,26.27S49,92.13,49,77.62a25.48,25.48,0,0,1,1.12-7.49h-8V107a3.47,3.47,0,0,0,3.47,3.46h60.74a3.47,3.47,0,0,0,3.47-3.46ZM76.1,59.7a17,17,0,1,0,17.52,17C93.62,67.29,85.78,59.7,76.1,59.7Z"/></g></g></svg>
